packages/starksheet-webapp/src/components/Footer/discord.svg

<svg width="16" height="16" viewBox="0 0 16 16" fill="none" xmlns="http://www.w3.org/2000/svg">
<path d="M14.5 2.07875C14.4961 1.6676 14.3302 1.27458 14.0384 0.984897C13.7466 0.695214 13.3524 0.532218 12.9412 0.53125L3.05125 0.5C2.64051 0.500081 2.24656 0.663028 1.95577 0.953115C1.66497 1.2432 1.50108 1.63676 1.5 2.0475V12.25C1.5 13.1031 2.19625 13.75 3.05125 13.75H11.5L11.0938 12.375L14.5 15.5V2.07875ZM10.1453 10.3066C10.1453 10.3066 9.87281 9.98187 9.64531 9.70281C10.6372 9.42344 11.0156 8.8125 11.0156 8.8125C10.7432 8.99321 10.4512 9.1426 10.1453 9.25781C9.79207 9.40448 9.42429 9.51332 9.04813 9.5825C8.39998 9.70155 7.73534 9.69901 7.08813 9.575C6.70742 9.5043 6.33481 9.39542 5.97594 9.25C5.78609 9.17729 5.60149 9.09156 5.42344 8.99344C5.40062 8.97844 5.37812 8.97094 5.35531 8.95562C5.34 8.94812 5.3325 8.94063 5.32406 8.94063C5.18781 8.865 5.11219 8.81219 5.11219 8.81219C5.11219 8.81219 5.47531 9.40875 6.43656 9.69531C6.20937 9.98219 5.92938 10.3144 5.92938 10.3144C4.25719 10.2616 3.62156 9.17469 3.62156 9.17469C3.62156 6.76656 4.71125 4.81156 4.71125 4.81156C5.80094 4.00375 6.83 4.02656 6.83 4.02656L6.90562 4.11719C5.54344 4.50219 4.92312 5.09844 4.92312 5.09844C4.92312 5.09844 5.08938 5.00781 5.36938 4.88688C6.17906 4.53219 6.8225 4.44156 7.08813 4.41156C7.13052 4.40275 7.1736 4.39763 7.21688 4.39625C7.72394 4.33045 8.23705 4.32542 8.74531 4.38125C9.54336 4.47292 10.3165 4.71636 11.0231 5.09844C11.0231 5.09844 10.4253 4.53125 9.13875 4.14687L9.24469 4.02625C9.24469 4.02625 10.2812 4.00344 11.3638 4.8125C11.3638 4.8125 12.4534 6.7675 12.4534 9.17562C12.4534 9.16687 11.8175 10.2537 10.1453 10.3066Z" fill="black"/>
<path d="M6.62734 6.8125C6.19609 6.8125 5.85547 7.1825 5.85547 7.64281C5.85547 8.10313 6.20359 8.47313 6.62734 8.47313C7.05859 8.47313 7.39922 8.10344 7.39922 7.64281C7.40703 7.18156 7.05859 6.8125 6.62734 6.8125ZM9.38922 6.8125C8.95797 6.8125 8.61734 7.1825 8.61734 7.64281C8.61734 8.10313 8.96547 8.47313 9.38922 8.47313C9.82078 8.47313 10.1611 8.10344 10.1611 7.64281C10.1611 7.18219 9.81328 6.8125 9.38922 6.8125Z" fill="black"/>
</svg>

<svg xmlns="http://www.w3.org/2000/svg" width="16" height="16" fill="none" viewBox="0 0 16 16"><path fill="#000" d="M14.5 2.079A1.562 1.562 0 0 0 12.941.53L3.051.5A1.552 1.552 0 0 0 1.5 2.047V12.25c0 .853.696 1.5 1.551 1.5H11.5l-.406-1.375L14.5 15.5V2.079Zm-4.355 8.228s-.272-.325-.5-.604c.992-.28 1.37-.89 1.37-.89-.272.18-.564.33-.87.445a5.314 5.314 0 0 1-3.057.317 5.76 5.76 0 0 1-1.112-.325 4.42 4.42 0 0 1-.553-.257c-.022-.015-.045-.022-.068-.037-.015-.008-.023-.015-.03-.015-.137-.076-.213-.129-.213-.129s.363.597 1.325.883c-.228.287-.508.62-.508.62-1.672-.053-2.307-1.14-2.307-1.14 0-2.408 1.09-4.363 1.09-4.363C5.8 4.004 6.83 4.027 6.83 4.027l.076.09c-1.363.385-1.983.981-1.983.981s.166-.09.446-.211a5.931 5.931 0 0 1 1.72-.475.75.75 0 0 1 .128-.016 6.425 6.425 0 0 1 1.528-.015 6.3 6.3 0 0 1 2.278.717s-.598-.567-1.884-.951l.106-.12s1.036-.024 2.119.785c0 0 1.09 1.955 1.09 4.364 0-.01-.636 1.078-2.309 1.13Z"/><path fill="#000" d="M6.627 6.813c-.43 0-.772.37-.772.83 0 .46.349.83.772.83.432 0 .772-.37.772-.83.008-.461-.34-.83-.772-.83Zm2.762 0c-.431 0-.772.37-.772.83 0 .46.348.83.772.83.432 0 .772-.37.772-.83 0-.46-.348-.83-.772-.83Z"/></svg>
